X: 11013
P: Copyright
M: 3/8
L: 1/16
K: G
g2f2e2 | f2e2d2 | d2g2B2 | B2A2A2 |\
e2c2A2 | F2d2c2 | B2E2A2 | G2F2A2 |\
d2 |\
gfgfgf | g4d2 | ededed | e4B2 |\
dcedfa | g4B2 | d2c2A2 | G4 |]
c6- | c4B2 | e2d2^c2 | d4g2 |\
g6- | g4d2 | e6- | e4B2 |\
(=c6 | ^c4)e2 | (e6 | "^D.C."d4) |]


